X: 21352
M: C|
L: 1/8
K: D
V: 1 name="5"
(3(GFE) |\
g2 |\
fd d2 fdad | fddf a2ed | cAA2 cAeA | cAAc e2fg |\
fdd2 fdad | fddf a2A2 | Bgfg fedc | d2d2 "^D.C."d2 :|


